X:3
T:Old Cameronian, The
R:Reel
M:4/4
L:1/8
K:Gmix
cF F/F/F cFdF|cFEF CFAc|B/d/B GB DBGB |[1 DGBd cBAB:|[2 DGBd cBAG||
Fffe fdcA|Fffe fd^ce|dg^fg bgag|dg^fg bgag|
dcde fdcA|Fffe fde^f|g/g/g bg g/g/g bg|bgag fafd||
